wp-content/themes/KOOEN/assets/img/common/headerLogo.svg

<svg fill="none" height="620" viewBox="0 0 144 620" width="144" xmlns="http://www.w3.org/2000/svg" xmlns:xlink="http://www.w3.org/1999/xlink"><clipPath id="a"><path d="m0 0h621v142.386h-621z" transform="matrix(0 1 -1 0 142.821 0)"/></clipPath><g clip-path="url(#a)" fill="#fff" opacity=".1"><path d="m31.5961 162.324c2.2016-5.464 5.504-10.547 9.9496-14.995s9.5686-7.752 14.988-9.955c4.1493-1.694 8.5525-2.711 12.9981-3.092 1.3972-.127 2.7944-.127 4.1916 0 4.4456.381 8.8065 1.398 12.998 3.092 5.4618 2.203 10.5424 5.507 14.9876 9.955 4.446 4.448 7.748 9.573 9.95 14.995 2.202 5.465 3.303 11.268 3.303 17.071 0 5.804-1.101 11.649-3.303 17.071-2.202 5.465-5.504 10.548-9.95 14.996l-30.0603 30.076-30.0606-30.076c-4.4456-4.448-7.7481-9.573-9.9497-14.996-2.2016-5.464-3.3024-11.267-3.3024-17.071 0-5.803 1.0584-11.606 3.2601-17.071zm0 162.917c2.2016-5.464 5.504-10.547 9.9496-14.995l30.0607-30.076 30.0606 30.076c4.446 4.448 7.748 9.573 9.95 14.995 2.201 5.465 3.302 11.268 3.302 17.071 0 5.804-1.101 11.65-3.302 17.072-2.202 5.464-5.504 10.547-9.95 14.995-4.4455 4.448-9.5685 7.752-14.9879 9.955-.8045.339-1.6089.635-2.4133.889-8.1715 2.754-17.105 2.754-25.2764 0-.8045-.254-1.6512-.593-2.4133-.889-5.4618-2.203-10.5425-5.507-14.988-9.955-4.4456-4.448-7.7481-9.573-9.9497-14.995-2.2016-5.465-3.3024-11.268-3.3024-17.072-.0847-5.803 1.0584-11.606 3.2601-17.071zm105.3389-10.251c-3.556-8.768-8.891-16.986-15.961-24.06l-30.061-30.076 30.061-30.076c7.07-7.074 12.405-15.292 15.961-24.06 3.557-8.769 5.335-18.046 5.335-27.323s-1.778-18.596-5.335-27.322c-3.556-8.769-8.891-16.986-15.961-24.061-7.071-7.074-15.285-12.411-24.0489-15.969-6.3085-2.542-13.5484-5.253-25.3187-5.253-11.5162 0-19.0949 2.753-25.3187 5.253-8.7642 3.558-16.9779 8.895-24.0485 15.969-7.0707 7.075-12.40537 15.292-15.96184 24.061-3.55648 8.769-5.334721 18.045-5.334721 27.322s1.778241 18.596 5.334711 27.323c3.55648 8.768 8.89115 16.986 15.96185 24.06l30.0606 30.076-30.0606 30.076c-7.0707 7.074-12.40538 15.292-15.96185 24.06-3.55647 8.769-5.334718 18.046-5.334718 27.322 0 9.277 1.778248 18.597 5.334718 27.323 3.55647 8.768 8.89115 16.986 15.96175 24.06 7.0707 7.074 15.2844 12.412 24.0486 15.97 5.7581 2.33 15.4961 5.253 25.3187 5.253 9.992 0 19.9417-3.093 25.3187-5.253 8.7639-3.558 16.9779-8.896 24.0489-15.97 7.07-7.074 12.405-15.292 15.961-24.06 3.557-8.726 5.293-18.003 5.293-27.28s-1.736-18.596-5.293-27.365z"/><path d="m130.542-.00000054-117.7868-.00000515c-6.7742-.00000029-12.278272 5.50681569-12.278272 12.28440569 0 6.7777 5.504072 12.2845 12.278272 12.2845h117.7868c6.775 0 12.279-5.5068 12.279-12.2845 0-6.77758-5.504-12.28440024-12.279-12.28440054z"/><path d="m25.0335 95.8189c0-6.4811 1.3126-12.581 3.6412-18.1301 3.5141-8.345 9.4416-15.5039 16.8933-20.5447 7.494-5.0409 16.3851-7.9637 26.0808-7.9637 6.4778 0 12.5746 1.3131 18.1211 3.643 8.3407 3.5159 15.4961 9.4463 20.5341 16.9017 5.039 7.4554 7.96 16.351 7.96 26.0515 0 6.7774 5.504 12.2844 12.278 12.2844 6.775 0 12.279-5.507 12.279-12.2844 0-19.6128-8.002-37.5311-20.831-50.3663-12.871-12.8351-30.7383-20.8412-50.3412-20.7988-19.603 0-37.5124 8.0061-50.3411 20.8412-12.87104 12.8351-20.873117 30.7111-20.830774 50.3662-.000001 6.7781 5.504074 12.2841 12.278274 12.2841 6.7743 0 12.2783-5.506 12.2783-12.2841z"/><path d="m12.7553 539.033h76.8029c3.9798 0 7.748.805 11.1348 2.245 5.123 2.16 9.527 5.803 12.617 10.42 3.091 4.575 4.869 10.04 4.869 16.012 0 3.982-.804 7.752-2.244 11.141-2.159 5.126-5.8 9.531-10.415 12.624-4.573 3.092-10.0344 4.871-16.0042 4.871h-76.8452c-6.77424 0-12.2783 5.507-12.278301 12.284 0 6.778 5.504061 12.285 12.278301 12.285h76.8876c14.6488 0 28.0708-5.973 37.6398-15.589 9.653-9.531 15.623-22.916 15.623-37.573s-5.97-28.085-15.581-37.658c-9.611-9.616-22.99-15.631-37.6395-15.589h-76.8452c-6.77427 0-12.278326 5.507-12.278326 12.285 0 6.777 5.461726 12.242 12.278326 12.242z"/><path d="m83.9271 486.337v-45.156c1.9899.551 3.9375 1.229 5.8427 1.991 8.3408 3.516 15.4962 9.447 20.5342 16.902 5.039 7.455 7.96 16.351 7.96 26.052 0 6.777 5.504 12.284 12.278 12.284 6.775 0 12.279-5.507 12.279-12.284 0-19.613-8.002-37.532-20.831-50.367-12.829-12.877-30.696-20.883-50.3412-20.841-19.603 0-37.5124 8.006-50.3411 20.841-12.87106 12.835-20.873132 30.754-20.83079 50.367 0 6.777 5.50407 12.284 12.27829 12.284 6.7743 0 12.2783-5.507 12.2783-12.284 0-6.482 1.3125-12.581 3.6412-18.131 3.5141-8.345 9.4416-15.503 16.8932-20.544 4.1493-2.796 8.8065-4.956 13.7602-6.27v45.114c0 6.778 5.5041 12.284 12.2783 12.284 6.8166.043 12.3207-5.464 12.3207-12.242z"/></g></svg>

<svg width="144" height="620" viewBox="0 0 144 620" fill="none" xmlns="http://www.w3.org/2000/svg">
<g opacity="0.1">
<g clip-path="url(#clip0)">
<path d="M31.5961 162.324C33.7977 156.86 37.1001 151.777 41.5457 147.329C45.9913 142.881 51.1143 139.577 56.5337 137.374C60.683 135.68 65.0862 134.663 69.5318 134.282C70.929 134.155 72.3262 134.155 73.7234 134.282C78.169 134.663 82.5299 135.68 86.7214 137.374C92.1832 139.577 97.2638 142.881 101.709 147.329C106.155 151.777 109.457 156.902 111.659 162.324C113.861 167.789 114.962 173.592 114.962 179.395C114.962 185.199 113.861 191.044 111.659 196.466C109.457 201.931 106.155 207.014 101.709 211.462L71.6487 241.538L41.5881 211.462C37.1425 207.014 33.84 201.889 31.6384 196.466C29.4368 191.002 28.336 185.199 28.336 179.395C28.336 173.592 29.3944 167.789 31.5961 162.324ZM31.5961 325.241C33.7977 319.777 37.1001 314.694 41.5457 310.246L71.6064 280.17L101.667 310.246C106.113 314.694 109.415 319.819 111.617 325.241C113.818 330.706 114.919 336.509 114.919 342.312C114.919 348.116 113.818 353.962 111.617 359.384C109.415 364.848 106.113 369.931 101.667 374.379C97.2215 378.827 92.0985 382.131 86.6791 384.334C85.8746 384.673 85.0702 384.969 84.2658 385.223C76.0943 387.977 67.1608 387.977 58.9894 385.223C58.1849 384.969 57.3382 384.63 56.5761 384.334C51.1143 382.131 46.0336 378.827 41.5881 374.379C37.1425 369.931 33.84 364.806 31.6384 359.384C29.4368 353.919 28.336 348.116 28.336 342.312C28.2513 336.509 29.3944 330.706 31.5961 325.241ZM136.935 314.99C133.379 306.222 128.044 298.004 120.974 290.93L90.913 260.854L120.974 230.778C128.044 223.704 133.379 215.486 136.935 206.718C140.492 197.949 142.27 188.672 142.27 179.395C142.27 170.118 140.492 160.799 136.935 152.073C133.379 143.304 128.044 135.087 120.974 128.012C113.903 120.938 105.689 115.601 96.9251 112.043C90.6166 109.501 83.3767 106.79 71.6064 106.79C60.0902 106.79 52.5115 109.543 46.2877 112.043C37.5235 115.601 29.3098 120.938 22.2392 128.012C15.1685 135.087 9.83383 143.304 6.27736 152.073C2.72088 160.842 0.942639 170.118 0.942639 179.395C0.942639 188.672 2.72088 197.991 6.27735 206.718C9.83383 215.486 15.1685 223.704 22.2392 230.778L52.2998 260.854L22.2392 290.93C15.1685 298.004 9.83382 306.222 6.27735 314.99C2.72088 323.759 0.942632 333.036 0.942632 342.312C0.942632 351.589 2.72088 360.909 6.27735 369.635C9.83382 378.403 15.1685 386.621 22.2391 393.695C29.3098 400.769 37.5235 406.107 46.2877 409.665C52.0458 411.995 61.7838 414.918 71.6064 414.918C81.5984 414.918 91.5481 411.825 96.9251 409.665C105.689 406.107 113.903 400.769 120.974 393.695C128.044 386.621 133.379 378.403 136.935 369.635C140.492 360.909 142.228 351.632 142.228 342.355C142.228 333.078 140.492 323.759 136.935 314.99Z" fill="white"/>
<path d="M130.542 -5.36702e-07L12.7552 -5.68534e-06C5.981 -5.98145e-06 0.476928 5.50681 0.476928 12.2844C0.476928 19.0621 5.981 24.5689 12.7552 24.5689L130.542 24.5689C137.317 24.5689 142.821 19.0621 142.821 12.2844C142.821 5.50682 137.317 -2.4059e-07 130.542 -5.36702e-07Z" fill="white"/>
<path d="M25.0335 95.8189C25.0335 89.3378 26.3461 83.2379 28.6747 77.6888C32.1888 69.3438 38.1163 62.1849 45.568 57.1441C53.062 52.1032 61.9531 49.1804 71.6488 49.1804C78.1266 49.1804 84.2234 50.4935 89.7699 52.8234C98.1106 56.3393 105.266 62.2697 110.304 69.7251C115.343 77.1805 118.264 86.0761 118.264 95.7766C118.264 102.554 123.768 108.061 130.542 108.061C137.317 108.061 142.821 102.554 142.821 95.7766C142.821 76.1638 134.819 58.2455 121.99 45.4103C109.119 32.5752 91.2517 24.5691 71.6488 24.6115C52.0458 24.6115 34.1364 32.6176 21.3077 45.4527C8.43666 58.2878 0.434583 76.1638 0.476926 95.8189C0.476925 102.597 5.981 108.103 12.7552 108.103C19.5295 108.103 25.0335 102.597 25.0335 95.8189Z" fill="white"/>
<path d="M12.7553 539.033L89.5582 539.033C93.538 539.033 97.3062 539.838 100.693 541.278C105.816 543.438 110.22 547.081 113.31 551.698C116.401 556.273 118.179 561.738 118.179 567.71C118.179 571.692 117.375 575.462 115.935 578.851C113.776 583.977 110.135 588.382 105.52 591.475C100.947 594.567 95.4856 596.346 89.5158 596.346L12.6706 596.346C5.89636 596.346 0.3923 601.853 0.392299 608.63C0.392299 615.408 5.89636 620.915 12.6706 620.915L89.5582 620.915C104.207 620.915 117.629 614.942 127.198 605.326C136.851 595.795 142.821 582.41 142.821 567.753C142.821 553.096 136.851 539.668 127.24 530.095C117.629 520.479 104.25 514.464 89.6005 514.506L12.7553 514.506C5.98103 514.506 0.476974 520.013 0.476974 526.791C0.476974 533.568 5.9387 539.033 12.7553 539.033Z" fill="white"/>
<path d="M83.9271 486.337L83.9271 441.181C85.917 441.732 87.8646 442.41 89.7698 443.172C98.1106 446.688 105.266 452.619 110.304 460.074C115.343 467.529 118.264 476.425 118.264 486.126C118.264 492.903 123.768 498.41 130.542 498.41C137.317 498.41 142.821 492.903 142.821 486.126C142.821 466.513 134.819 448.594 121.99 435.759C109.161 422.882 91.294 414.876 71.6488 414.918C52.0458 414.918 34.1364 422.924 21.3077 435.759C8.43664 448.594 0.434568 466.513 0.47691 486.126C0.47691 492.903 5.98098 498.41 12.7552 498.41C19.5295 498.41 25.0335 492.903 25.0335 486.126C25.0335 479.644 26.346 473.545 28.6747 467.995C32.1888 459.65 38.1163 452.492 45.5679 447.451C49.7172 444.655 54.3744 442.495 59.3281 441.181L59.3281 486.295C59.3281 493.073 64.8322 498.579 71.6064 498.579C78.423 498.622 83.9271 493.115 83.9271 486.337Z" fill="white"/>
</g>
</g>
<defs>
<clipPath id="clip0">
<rect width="621" height="142.386" fill="white" transform="translate(142.821) rotate(90)"/>
</clipPath>
</defs>
</svg>
